cssgg/compress-right.svg

<svg
  width="24"
  height="24"
  viewBox="0 0 24 24"
  fill="none"
  xmlns="http://www.w3.org/2000/svg"
>
  <path
    d="M14.567 8.02947L20.9105 1.76929L22.3153 3.19282L15.9916 9.43352L19.5614 9.44772L19.5534 11.4477L12.5535 11.4199L12.5813 4.41992L14.5813 4.42788L14.567 8.02947Z"
    fill="currentColor"
  />
  <path
    d="M7.97879 14.5429L4.40886 14.5457L4.40729 12.5457L11.4073 12.5402L11.4128 19.5402L9.41277 19.5417L9.40995 15.9402L3.09623 22.2306L1.68463 20.8138L7.97879 14.5429Z"
    fill="currentColor"
  />
</svg>

<svg viewBox="0 0 24 24" xmlns="http://www.w3.org/2000/svg"><g><path d="M14.56 8.02l6.34-6.27 1.4 1.42 -6.33 6.24 3.56.01 -.01 1.99 -7-.03 .02-7 2 0 -.02 3.6Z"/><path d="M7.97 14.54l-3.57 0 -.01-2 7-.01 0 7 -2.01 0 -.01-3.61 -6.32 6.29 -1.42-1.42 6.29-6.28Z"/></g></svg>
